static/img/11- package-stack.svg

<svg viewBox="0 0 100 112" xmlns="http://www.w3.org/2000/svg"><path d="m90 56a40 40 0 1 0 -76.44 16.5h72.88a39.85 39.85 0 0 0 3.56-16.5z" fill="#e8f4fa"/><path d="m13.56 72.5a40 40 0 0 0 72.88 0z" fill="#fff"/><path d="m10.5 72.5h78" fill="none" stroke="#191816" stroke-linecap="round" stroke-linejoin="round"/><path d="m6 72.5h2.5" fill="none" stroke="#191816" stroke-linecap="round" stroke-linejoin="round"/><path d="m90.5 72.5h2.5" fill="none" stroke="#191816" stroke-linecap="round" stroke-linejoin="round"/><path d="m29.18 51.68h20.73a0 0 0 0 1 0 0v18.84a0 0 0 0 1 0 0h-21.73a0 0 0 0 1 0 0v-17.84a1 1 0 0 1 1-1z" fill="#f0d5a8"/><path d="m49.91 51.68h20.74a1 1 0 0 1 1 1v17.84a0 0 0 0 1 0 0h-21.74a0 0 0 0 1 0 0v-18.84a0 0 0 0 1 0 0z" fill="#f0d5a8"/><path d="m49.91 55.3v-3.62h-20.53a1.21 1.21 0 0 0 -1.2 1.21v3.62a1.21 1.21 0 0 1 1.2-1.21z" fill="#fff5e3" opacity=".7"/><path d="m70.44 51.68h-20.53v3.62h20.53a1.21 1.21 0 0 1 1.21 1.21v-3.62a1.21 1.21 0 0 0 -1.21-1.21z" fill="#fff5e3" opacity=".7"/><path d="m65.85 73.41h7.24v5.8h-7.24z" fill="#dea47a" transform="matrix(-1 0 0 -1 138.95 152.62)"/><path d="m65.85 73.41h7.24v2.17h-7.24z" fill="#bf8256"/><path d="m45.57 73.41h7.24v5.8h-7.24z" fill="#dea47a" transform="matrix(-1 0 0 -1 98.38 152.62)"/><path d="m45.57 73.41h7.24v2.17h-7.24z" fill="#bf8256"/><path d="m65.85 73.41h7.24v5.8h-7.24z" fill="none" stroke="#191816" stroke-linecap="round" stroke-linejoin="round" transform="matrix(-1 0 0 -1 138.95 152.62)"/><path d="m45.57 73.41h7.24v5.8h-7.24z" fill="none" stroke="#191816" stroke-linecap="round" stroke-linejoin="round" transform="matrix(-1 0 0 -1 98.38 152.62)"/><path d="m25.28 73.41h7.24v5.8h-7.24z" fill="#dea47a" transform="matrix(-1 0 0 -1 57.8 152.62)"/><path d="m25.28 73.41h7.24v2.17h-7.24z" fill="#bf8256"/><path d="m42.67 51.68v1.37a2.24 2.24 0 0 0 2.24 2.25h17.25a2.24 2.24 0 0 0 2.24-2.25v-1.37z" fill="#debb7e"/><path d="m36.87 51.68h4.35a0 0 0 0 1 0 0v9.64a.5.5 0 0 1 -.5.5h-3.35a.5.5 0 0 1 -.5-.5v-9.64a0 0 0 0 1 0 0z" fill="#fff"/><path d="m58.61 51.68h4.39a0 0 0 0 1 0 0v9.64a.5.5 0 0 1 -.5.5h-3.39a.5.5 0 0 1 -.5-.5v-9.64a0 0 0 0 1 0 0z" fill="#fff"/><path d="m62.16 55.3a2.31 2.31 0 0 0 .79-.15v-3.47h-4.34v3.62z" fill="#e0e0e0"/><g fill="none" stroke="#191816" stroke-linecap="round" stroke-linejoin="round"><path d="m58.61 51.68h4.39a0 0 0 0 1 0 0v9.64a.5.5 0 0 1 -.5.5h-3.39a.5.5 0 0 1 -.5-.5v-9.64a0 0 0 0 1 0 0z"/><path d="m29.18 51.68h20.73a0 0 0 0 1 0 0v18.84a0 0 0 0 1 0 0h-21.73a0 0 0 0 1 0 0v-17.84a1 1 0 0 1 1-1z"/><path d="m36.87 51.68h4.35a0 0 0 0 1 0 0v9.64a.5.5 0 0 1 -.5.5h-3.35a.5.5 0 0 1 -.5-.5v-9.64a0 0 0 0 1 0 0z"/><path d="m58.61 51.68h4.39a0 0 0 0 1 0 0v9.64a.5.5 0 0 1 -.5.5h-3.39a.5.5 0 0 1 -.5-.5v-9.64a0 0 0 0 1 0 0z"/><path d="m49.91 51.68h20.74a1 1 0 0 1 1 1v17.84a0 0 0 0 1 0 0h-21.74a0 0 0 0 1 0 0v-18.84a0 0 0 0 1 0 0z"/><path d="m25.28 73.41h7.24v5.8h-7.24z" transform="matrix(-1 0 0 -1 57.8 152.62)"/></g><path d="m43.67 31.39h19.73a1 1 0 0 1 1 1v19.29a0 0 0 0 1 0 0h-21.73a0 0 0 0 1 0 0v-19.29a1 1 0 0 1 1-1z" fill="#f0d5a8"/><path d="m63.19 31.39h-19.32a1.21 1.21 0 0 0 -1.2 1.21v3.62a1.2 1.2 0 0 1 1.2-1.2h19.32a1.21 1.21 0 0 1 1.21 1.2v-3.62a1.21 1.21 0 0 0 -1.21-1.21z" fill="#fff5e3" opacity=".7"/><path d="m51.36 31.39h4.35a0 0 0 0 1 0 0v9.61a.5.5 0 0 1 -.5.5h-3.35a.5.5 0 0 1 -.5-.5v-9.61a0 0 0 0 1 0 0z" fill="#fff"/><path d="m51.36 31.39h4.35a0 0 0 0 1 0 0v9.61a.5.5 0 0 1 -.5.5h-3.35a.5.5 0 0 1 -.5-.5v-9.61a0 0 0 0 1 0 0z" fill="none" stroke="#191816" stroke-linecap="round" stroke-linejoin="round"/><path d="m43.67 31.39h19.73a1 1 0 0 1 1 1v19.29a0 0 0 0 1 0 0h-21.73a0 0 0 0 1 0 0v-19.29a1 1 0 0 1 1-1z" fill="none" stroke="#191816" stroke-linecap="round" stroke-linejoin="round"/><path d="m74.55 70.52h-50.72a1.45 1.45 0 1 0 0 2.89h50.72a1.45 1.45 0 0 0 0-2.89z" fill="#dea47a"/><path d="m23.83 72h50.72a1.41 1.41 0 0 1 1.22.73 1.41 1.41 0 0 0 -1.22-2.17h-50.72a1.44 1.44 0 0 0 -1.45 1.44 1.52 1.52 0 0 0 .22.73 1.43 1.43 0 0 1 1.23-.73z" fill="#f0c2a1"/><path d="m74.55 70.52h-50.72a1.45 1.45 0 1 0 0 2.89h50.72a1.45 1.45 0 0 0 0-2.89z" fill="none" stroke="#191816" stroke-miterlimit="10"/><path d="m74.55 79.21h-50.72a1.45 1.45 0 1 0 0 2.9h50.72a1.45 1.45 0 0 0 0-2.9z" fill="#dea47a"/><path d="m23.83 80.66h50.72a1.42 1.42 0 0 1 1.22.72 1.36 1.36 0 0 0 .22-.72 1.44 1.44 0 0 0 -1.44-1.45h-50.72a1.41 1.41 0 0 0 -1.23 2.17 1.44 1.44 0 0 1 1.23-.72z" fill="#f0c2a1"/><path d="m74.55 79.21h-50.72a1.45 1.45 0 1 0 0 2.9h50.72a1.45 1.45 0 0 0 0-2.9z" fill="none" stroke="#191816" stroke-linecap="round" stroke-linejoin="round"/></svg>

<svg id="Multicolor" xmlns="http://www.w3.org/2000/svg" viewBox="0 0 100 112"><defs><style>.cls-1{fill:#e8f4fa;}.cls-2{fill:#fff;}.cls-11,.cls-3{fill:none;stroke:#191816;}.cls-3{stroke-linecap:round;stroke-linejoin:round;}.cls-4{fill:#f0d5a8;}.cls-5{fill:#fff5e3;opacity:0.7;}.cls-6{fill:#dea47a;}.cls-7{fill:#bf8256;}.cls-8{fill:#debb7e;}.cls-9{fill:#e0e0e0;}.cls-10{fill:#f0c2a1;}.cls-11{stroke-miterlimit:10;}</style></defs><title>11- package-stack</title><g id="Background"><g id="New_Symbol_28-2" data-name="New Symbol 28"><path class="cls-1" d="M90,56A40,40,0,1,0,13.56,72.5H86.44A39.85,39.85,0,0,0,90,56Z"/><path class="cls-2" d="M13.56,72.5a40,40,0,0,0,72.88,0Z"/><line class="cls-3" x1="10.5" y1="72.5" x2="88.5" y2="72.5"/><line class="cls-3" x1="6" y1="72.5" x2="8.5" y2="72.5"/><line class="cls-3" x1="90.5" y1="72.5" x2="93" y2="72.5"/></g></g><g id="Scene"><path class="cls-4" d="M29.18,51.68H49.91a0,0,0,0,1,0,0V70.52a0,0,0,0,1,0,0H28.18a0,0,0,0,1,0,0V52.68A1,1,0,0,1,29.18,51.68Z"/><path class="cls-4" d="M49.91,51.68H70.65a1,1,0,0,1,1,1V70.52a0,0,0,0,1,0,0H49.91a0,0,0,0,1,0,0V51.68A0,0,0,0,1,49.91,51.68Z"/><path class="cls-5" d="M49.91,55.3V51.68H29.38a1.21,1.21,0,0,0-1.2,1.21v3.62a1.21,1.21,0,0,1,1.2-1.21Z"/><path class="cls-5" d="M70.44,51.68H49.91V55.3H70.44a1.21,1.21,0,0,1,1.21,1.21V52.89A1.21,1.21,0,0,0,70.44,51.68Z"/><rect class="cls-6" x="65.85" y="73.41" width="7.24" height="5.8" transform="translate(138.95 152.62) rotate(180)"/><rect class="cls-7" x="65.85" y="73.41" width="7.24" height="2.17"/><rect class="cls-6" x="45.57" y="73.41" width="7.24" height="5.8" transform="translate(98.38 152.62) rotate(180)"/><rect class="cls-7" x="45.57" y="73.41" width="7.24" height="2.17"/><rect class="cls-3" x="65.85" y="73.41" width="7.24" height="5.8" transform="translate(138.95 152.62) rotate(180)"/><rect class="cls-3" x="45.57" y="73.41" width="7.24" height="5.8" transform="translate(98.38 152.62) rotate(180)"/><rect class="cls-6" x="25.28" y="73.41" width="7.24" height="5.8" transform="translate(57.8 152.62) rotate(180)"/><rect class="cls-7" x="25.28" y="73.41" width="7.24" height="2.17"/><path class="cls-8" d="M42.67,51.68v1.37a2.24,2.24,0,0,0,2.24,2.25H62.16a2.24,2.24,0,0,0,2.24-2.25V51.68Z"/><path class="cls-2" d="M36.87,51.68h4.35a0,0,0,0,1,0,0v9.64a.5.5,0,0,1-.5.5H37.37a.5.5,0,0,1-.5-.5V51.68A0,0,0,0,1,36.87,51.68Z"/><path class="cls-2" d="M58.61,51.68H63a0,0,0,0,1,0,0v9.64a.5.5,0,0,1-.5.5H59.11a.5.5,0,0,1-.5-.5V51.68A0,0,0,0,1,58.61,51.68Z"/><path class="cls-9" d="M62.16,55.3a2.31,2.31,0,0,0,.79-.15V51.68H58.61V55.3Z"/><path class="cls-3" d="M58.61,51.68H63a0,0,0,0,1,0,0v9.64a.5.5,0,0,1-.5.5H59.11a.5.5,0,0,1-.5-.5V51.68A0,0,0,0,1,58.61,51.68Z"/><path class="cls-3" d="M29.18,51.68H49.91a0,0,0,0,1,0,0V70.52a0,0,0,0,1,0,0H28.18a0,0,0,0,1,0,0V52.68A1,1,0,0,1,29.18,51.68Z"/><path class="cls-3" d="M36.87,51.68h4.35a0,0,0,0,1,0,0v9.64a.5.5,0,0,1-.5.5H37.37a.5.5,0,0,1-.5-.5V51.68A0,0,0,0,1,36.87,51.68Z"/><path class="cls-3" d="M58.61,51.68H63a0,0,0,0,1,0,0v9.64a.5.5,0,0,1-.5.5H59.11a.5.5,0,0,1-.5-.5V51.68A0,0,0,0,1,58.61,51.68Z"/><path class="cls-3" d="M49.91,51.68H70.65a1,1,0,0,1,1,1V70.52a0,0,0,0,1,0,0H49.91a0,0,0,0,1,0,0V51.68A0,0,0,0,1,49.91,51.68Z"/><rect class="cls-3" x="25.28" y="73.41" width="7.24" height="5.8" transform="translate(57.8 152.62) rotate(180)"/><path class="cls-4" d="M43.67,31.39H63.4a1,1,0,0,1,1,1V51.68a0,0,0,0,1,0,0H42.67a0,0,0,0,1,0,0V32.39A1,1,0,0,1,43.67,31.39Z"/><path class="cls-5" d="M63.19,31.39H43.87a1.21,1.21,0,0,0-1.2,1.21v3.62a1.2,1.2,0,0,1,1.2-1.2H63.19a1.21,1.21,0,0,1,1.21,1.2V32.6A1.21,1.21,0,0,0,63.19,31.39Z"/><path class="cls-2" d="M51.36,31.39h4.35a0,0,0,0,1,0,0V41a.5.5,0,0,1-.5.5H51.86a.5.5,0,0,1-.5-.5V31.39A0,0,0,0,1,51.36,31.39Z"/><path class="cls-3" d="M51.36,31.39h4.35a0,0,0,0,1,0,0V41a.5.5,0,0,1-.5.5H51.86a.5.5,0,0,1-.5-.5V31.39A0,0,0,0,1,51.36,31.39Z"/><path class="cls-3" d="M43.67,31.39H63.4a1,1,0,0,1,1,1V51.68a0,0,0,0,1,0,0H42.67a0,0,0,0,1,0,0V32.39A1,1,0,0,1,43.67,31.39Z"/><path class="cls-6" d="M74.55,70.52H23.83a1.45,1.45,0,1,0,0,2.89H74.55a1.45,1.45,0,0,0,0-2.89Z"/><path class="cls-10" d="M23.83,72H74.55a1.41,1.41,0,0,1,1.22.73,1.41,1.41,0,0,0-1.22-2.17H23.83A1.44,1.44,0,0,0,22.38,72a1.52,1.52,0,0,0,.22.73A1.43,1.43,0,0,1,23.83,72Z"/><path class="cls-11" d="M74.55,70.52H23.83a1.45,1.45,0,1,0,0,2.89H74.55a1.45,1.45,0,0,0,0-2.89Z"/><path class="cls-6" d="M74.55,79.21H23.83a1.45,1.45,0,1,0,0,2.9H74.55a1.45,1.45,0,0,0,0-2.9Z"/><path class="cls-10" d="M23.83,80.66H74.55a1.42,1.42,0,0,1,1.22.72,1.36,1.36,0,0,0,.22-.72,1.44,1.44,0,0,0-1.44-1.45H23.83a1.41,1.41,0,0,0-1.23,2.17A1.44,1.44,0,0,1,23.83,80.66Z"/><path class="cls-3" d="M74.55,79.21H23.83a1.45,1.45,0,1,0,0,2.9H74.55a1.45,1.45,0,0,0,0-2.9Z"/></g></svg>
